X:9
T: Polonäs, sexdregasamlingen del 1 nr 9
B: Sexdregasamlingen del 1 nr 9
O: Sexdrega, Västergötland
R: Slängpolska
S: efter Johannes Bryngelsson
Z: 2012-07-31 Per Oldberg
M: 3/4
L: 1/16
K: D
dcde d2A2 F2D2|dcde d2A2 F2D2|d2cd e2de f2ef|g2f2 e8:|
a^gab a2e2 c2A2|gfga g2e2 c2A2|f2ef g2fe f2ed|e2dc d4D4:|

